assets/logos/SVG/ICN-alt.svg

<svg viewBox="0 0 226.8 226.8" xmlns="http://www.w3.org/2000/svg"><path d="m113.4 0c-62.6 0-113.4 50.8-113.4 113.4s50.8 113.4 113.4 113.4 113.4-50.8 113.4-113.4-50.8-113.4-113.4-113.4zm-35.585 172.709h-17.793v-29.654h17.793zm29.654 0h-17.793v-88.963h17.793zm29.655 0h-17.793v-59.309h17.793zm29.654 0h-17.793v-118.618h17.793z"/></svg>

<svg xmlns="http://www.w3.org/2000/svg" viewBox="0 0 226.8 226.8"><path d="M113.4 0C50.8 0 0 50.8 0 113.4s50.8 113.4 113.4 113.4S226.8 176 226.8 113.4 176 0 113.4 0zM77.815 172.709H60.022v-29.654h17.793v29.654zm29.654 0H89.676V83.746h17.793v88.963zm29.655 0h-17.793V113.4h17.793v59.309zm29.654 0h-17.793V54.091h17.793v118.618z"/></svg>
